src/cmd/32/datafilterspecialfilter.svg

<svg viewBox="0 0 32 32" xmlns="http://www.w3.org/2000/svg"><path d="m6.2929688 3.9960938-1.2929688 1.2929687v2.5390625c.0548.0399 8 10.667969 8 10.667969v5.007812l2 1.5v-1.248047c-.344605-.258832-.678625-.508405-1-.75v-4.841797l-8-10.6679682v-1.7929688l.7070312-.7070312h18.5859378l.707031.7070312v1.7929688l-5.626953 7.5039062h1.248047l5.378906-7.171875v-2.5390625l-1.292969-1.2929687zm.7070312 2 5 6.5000002c-.0153.005 0-3.5000002 0-3.5000002l3-3z" fill="#232629"/><path d="m16 16v3 9h1 10 1v-1-11h-11zm1 3h10v8h-10zm3 1v6l4-3z" fill="#762572"/></svg>

<?xml version="1.0" encoding="UTF-8" standalone="no"?>
<svg
   xmlns:dc="http://purl.org/dc/elements/1.1/"
   xmlns:cc="http://creativecommons.org/ns#"
   xmlns:rdf="http://www.w3.org/1999/02/22-rdf-syntax-ns#"
   xmlns:svg="http://www.w3.org/2000/svg"
   xmlns="http://www.w3.org/2000/svg"
   xmlns:sodipodi="http://sodipodi.sourceforge.net/DTD/sodipodi-0.dtd"
   xmlns:inkscape="http://www.inkscape.org/namespaces/inkscape"
   viewBox="0 0 32 32"
   version="1.1"
   id="svg6"
   sodipodi:docname="datafilterspecialfilter.svg"
   inkscape:export-filename="/home/jupiter007/Libreoffice yaru theme fullcolor/build/cmd/32/datafilterspecialfilter.png"
   inkscape:export-xdpi="96"
   inkscape:export-ydpi="96"
   inkscape:version="0.92.5 (2060ec1f9f, 2020-04-08)">
  <metadata
     id="metadata12">
    <rdf:RDF>
      <cc:Work
         rdf:about="">
        <dc:format>image/svg+xml</dc:format>
        <dc:type
           rdf:resource="http://purl.org/dc/dcmitype/StillImage" />
      </cc:Work>
    </rdf:RDF>
  </metadata>
  <defs
     id="defs10" />
  <sodipodi:namedview
     pagecolor="#ffffff"
     bordercolor="#666666"
     borderopacity="1"
     objecttolerance="10"
     gridtolerance="10"
     guidetolerance="10"
     inkscape:pageopacity="0"
     inkscape:pageshadow="2"
     inkscape:window-width="1920"
     inkscape:window-height="1011"
     id="namedview8"
     showgrid="true"
     inkscape:zoom="20.85965"
     inkscape:cx="15.303768"
     inkscape:cy="15.374529"
     inkscape:window-x="0"
     inkscape:window-y="32"
     inkscape:window-maximized="1"
     inkscape:current-layer="svg6">
    <inkscape:grid
       type="xygrid"
       id="grid830" />
  </sodipodi:namedview>
  <path
     sodipodi:nodetypes="ccccccccccc"
     id="path842"
     d="M 6.2929689,3.9951671 5.0000001,5.288136 V 7.8271985 C 5.0547566,7.8670953 13,18.495167 13,18.495167 v 5.007812 l 6,4.501954 V 18.495167 L 27,7.8271985 V 5.288136 L 25.707031,3.9951671 Z"
     style="opacity:0.6;fill:#000000;stroke:#000000;stroke-width:2;stroke-linejoin:round;stroke-miterlimit:4;stroke-dasharray:none"
     inkscape:connector-curvature="0" />
  <path
     inkscape:connector-curvature="0"
     style="fill:#ffffff"
     d="M 6.2929689,3.9951671 5.0000001,5.288136 V 7.8271985 C 5.0547566,7.8670953 13,18.495167 13,18.495167 v 5.007812 l 6,4.501954 V 18.495167 L 27,7.8271985 V 5.288136 L 25.707031,3.9951671 Z"
     id="path2"
     sodipodi:nodetypes="ccccccccccc" />
  <path
     d="m 16,16 v 3 9 h 1 10 1 V 27 16 H 17 Z m 1,3 h 10 v 8 H 17 Z"
     id="path4"
     inkscape:connector-curvature="0"
     style="fill:#6d6d6d;fill-opacity:1"
     sodipodi:nodetypes="ccccccccccccccc" />
  <rect
     style="opacity:1;fill:#ffffff;fill-opacity:1;fill-rule:evenodd;stroke:none;stroke-width:2;stroke-linecap:butt;stroke-linejoin:round;stroke-miterlimit:4;stroke-dasharray:none;stroke-opacity:1"
     id="rect832"
     width="10"
     height="8"
     x="17"
     y="19" />
</svg>
